X: 1
T: Craig's Pipes
M: 4/4
L: 1/8
R: reel
K: Gmaj
|: B2BA BAGA | B2GB AGED |1 B2BA BAGB | AABG AGED :|2 Bded BcdB | AcBG AGEG
|: DGGG AGBG | DGBG AGEG | DGGF GGBc | dBAc BGGG :|
|: d2Bd efge | dGBG AGEG |1 d2Bd eggg | agbg ageg :|2 d2Bd eggg | agbg aged ||
